X:1
T: Bonnie Gallowa'
C:
R:Strathspey
Q:128
K:G
M:4/4
L:1/16
|:B6F2 A4G4|E2G6 D8|D4E4 G4B4|A6B2 A8|B6F2 A4G4|E2G6 D8|D4E4 G4B4|A6G2 G8|
d6d2 B4G4|e4G4 d8|d6d2 B4A4|G2AG F2G2 A4D4|B6F2 A4G4|E2G6 D8|D4E4 G4B4|A6G2 G8|
d6d2 B4G4|e4G4 d8|d6d2 B4A4|G2AG F2G2 A4D4|B6F2 A4G4|E2G6 D8|D4E4 G4B4|A6G2 G2A2B2c2|
d6d2 B4G4|e4G4 d8|d6d2 B4A4|G2AG F2G2 A4D4|B6F2 A4G4|E2G6 D8|D4E4 G4B4|A6G2 G8||
